**kern	**kern	**dynam
*part1	*part1	*part1
*staff2	*staff1	*
*I"Piano	*	*
*clefF4	*clefG2	*
*k[f#c#]	*k[f#c#]	*
=1	=1	=1
(4DD' 4D	(4G' 4A	.
4DD' 4D	4Fn' 4A 4B	.
=	=	=
4CCn' 4Cn	4Fn' 4A 4cn	.
4CC') 4C	4F') 4A 4c	.
=	=	=
(4CCn' 4Cn	(4Fn' 4G	.
4CC' 4C	4E' 4G 4cn	.
=	=	=
!	!LO:TX:b:i:t=cresc.	!
4BBB-X' 4BB-X	4Fn' 4B-X 4d	.
4BBB-') 4BB-	4F') 4B- 4d	.
=	=	=
(4AAA' 4AA	(4Fn' 4A 4d	.
4GGG#X' 4GG#X	4F' 4Bn 4d	.
=	=	=
4AAA' 4AA	4E' 4A 4d	>
4AAA' 4AA	4E' 4A 4c#X	]
=	=	=
4DD' 4D	4F#X' 4A 4d	p
[4DD [4D	[4F# [4A [4d	.
=	=	=
2DD;]) 2D]	2F#;]) 2A] 2d]	.
==	==	==
*-	*-	*-
!!!system-decoration: {(s1,s2)}
